X:313
T: Rakes of Westmeath
N: O'Farrell's Pocket Companion v.4 (Sky ed. p.139)
N: "Irish"
M: 9/8
R: slip jig
L: 1/8
Q: 320
K: D
F/G/|: A2d FDF EGE| A2d FDF G2E| A2d FDF EGE| =c3 EFE G2E|
d2d fed ecA| d2d fed g2e|  d2d fed ecA| =c3 EFE G2E||
ABc dAG FDF| ABc dAF G2E| ABc dAG FDF| =c3 EFE G2E :|
